X: 36837
T: Ship Of Grace
R: strathspey
M: 4/4
K: Gmajor
d|Bd dd/e/ dg a/g/f/e/|dB BA/G/ B2Ad|
Bd dd/e/ dg a/g/f/e/|dB A/G/A G3||
|:d|gd de/f/ gd dg|e>d eg a4|
gb eg d>g dB|AG AB/A/ G3:|
K:Dmaj
F/G/|Ad B/A/G/F/ Be d/c/B/A/|d>B AF BE EF/G/|
Ad B/A/G/F/ Be d//B/A/|d>B AG F/A/D D||
|:d/e/|fd ec d/c/B/A/ dF|GB Ad/e/ fe ed/e/|
fd ec d/c/B/A/ dF|GB Ad/e/ fd d:|

